X:280
T: Xi cai xin     Kern eines blattgemses waschen
N: C0506
O: China,Hunan
S: MM, handschriftlich vorhanden]
N: +++Ggf. schon vorhanden?? Saengerin: Huang Bai = VARIANTE
N: Wenig Verzierungen, Glissandi. +++ NOTEN UEBERPRUEFEN!
N: Chao Lun Bato ?
R: Xiaodiao, Wuge, Huagu, Hunan huagu. Chang richang shenghuo]
M: 4/4
L: 1/16
K: A
A2F2ceceF2AFE2C2 | C4F4z4
C2F2 | A4FAF6c2e2 | F2F4C2E6z2 |
F3FF2A2c3ec2A2 | AF2Acc2FA6z2 |
c3cA2A2c2A2cece | F2F4C2E6z2 |
F2e6FEC4E2 | F4c6e2FEFEC2z2
c3cA2A2c2A2cece | F2F4C2E8

@@@ Tune index: 6281
